src/features/landing/assets/automation-logo.svg

<svg width="48" height="48" viewBox="0 0 48 48" fill="none" xmlns="http://www.w3.org/2000/svg">
<path d="M24.0003 0L3.21582 12.0009V35.9991L24.0003 48L44.7848 35.9991V12.0009L24.0003 0ZM38.9437 26.7868C38.8595 26.7428 38.7788 26.7025 38.6909 26.6658C37.0786 25.9989 35.2317 26.7648 34.5648 28.3771C33.8979 29.9895 34.6637 31.8363 36.2724 32.5032C36.3603 32.5399 36.4483 32.5692 36.5399 32.5985C35.4809 34.1412 34.1434 35.4787 32.6007 36.5378C32.5713 36.4498 32.542 36.3582 32.5054 36.2702C31.8385 34.6579 29.9916 33.8921 28.3793 34.559C26.7669 35.2259 26.0011 37.0728 26.6717 38.6851C26.7083 38.773 26.7486 38.8573 26.7926 38.9379C25.8875 39.1065 24.9604 39.1981 24.0076 39.1981C23.0549 39.1981 22.1241 39.1065 21.2227 38.9379C21.2667 38.8537 21.307 38.773 21.3436 38.6851C22.0105 37.0728 21.2447 35.2259 19.6323 34.559C18.02 33.8921 16.1731 34.6579 15.5062 36.2702C15.4696 36.3582 15.4403 36.4461 15.4109 36.5378C13.8682 35.4787 12.5307 34.1412 11.4717 32.5985C11.5597 32.5692 11.6513 32.5399 11.7392 32.5032C13.3516 31.8363 14.1174 29.9895 13.4505 28.3771C12.7836 26.7648 10.9367 25.9989 9.32438 26.6658C9.23643 26.7025 9.15215 26.7428 9.07153 26.7868C8.90297 25.8817 8.81136 24.9546 8.81136 24.0018C8.81136 23.0491 8.90297 22.1183 9.07153 21.2169C9.15582 21.2609 9.23643 21.3012 9.32438 21.3378C10.9367 22.0047 12.7836 21.2389 13.4505 19.6302C14.1174 18.0179 13.3516 16.171 11.7392 15.5041C11.6513 15.4674 11.5633 15.4381 11.4717 15.4088C12.5307 13.8661 13.8682 12.5286 15.4109 11.4696C15.4403 11.5575 15.4696 11.6491 15.5062 11.7371C16.1731 13.3494 18.02 14.1153 19.6323 13.4447C21.2447 12.7778 22.0105 10.9309 21.3436 9.31857C21.307 9.23063 21.2667 9.14635 21.2227 9.06573C22.1278 8.89717 23.0549 8.80556 24.0076 8.80556C24.9604 8.80556 25.8911 8.89717 26.7926 9.06573C26.7486 9.15001 26.7083 9.23063 26.6717 9.31857C26.0047 10.9309 26.7706 12.7778 28.3793 13.4447C29.9916 14.1116 31.8385 13.3458 32.5054 11.7371C32.542 11.6491 32.5713 11.5612 32.6007 11.4696C34.1434 12.5286 35.4809 13.8661 36.5399 15.4088C36.4519 15.4381 36.3603 15.4674 36.2724 15.5041C34.6601 16.171 33.8942 18.0179 34.5648 19.6302C35.2317 21.2425 37.0786 22.0084 38.6909 21.3378C38.7788 21.3012 38.8631 21.2609 38.9437 21.2169C39.1123 22.122 39.2039 23.0491 39.2039 24.0018C39.2039 24.9546 39.1123 25.8853 38.9437 26.7868Z" fill="url(#paint0_linear_3965_31327)"/>
<path d="M38.9439 21.2132C38.8596 21.2572 38.779 21.2975 38.6911 21.3341C37.0787 22.0011 35.2319 21.2352 34.5649 19.6265C33.898 18.0142 34.6639 16.1673 36.2726 15.5004C36.3605 15.4638 36.4484 15.4344 36.5401 15.4051C35.481 13.8624 34.1435 12.5249 32.6008 11.4659C32.5715 11.5538 32.5422 11.6455 32.5055 11.7334C31.8386 13.3457 29.9918 14.1116 28.3794 13.441C26.7671 12.7741 26.0012 10.9272 26.6718 9.3149C26.7085 9.22695 26.7488 9.14267 26.7927 9.06205C25.8876 8.89349 24.9605 8.80188 24.0078 8.80188C23.0551 8.80188 22.1243 8.89349 21.2229 9.06205C21.2668 9.14633 21.3071 9.22695 21.3438 9.3149C22.0107 10.9272 21.2448 12.7741 19.6325 13.441C18.0202 14.1079 16.1733 13.3421 15.5064 11.7334C15.4697 11.6455 15.4404 11.5575 15.4111 11.4659C13.8684 12.5249 12.5309 13.8624 11.4719 15.4051C11.5598 15.4344 11.6514 15.4638 11.7394 15.5004C13.3517 16.1673 14.1176 18.0142 13.4507 19.6265C12.7837 21.2389 10.9369 22.0047 9.32454 21.3341C9.23659 21.2975 9.15231 21.2572 9.0717 21.2132C8.90313 22.1183 8.81152 23.0454 8.81152 23.9982C8.81152 24.9509 8.90313 25.8817 9.0717 26.7831C9.15598 26.7391 9.23659 26.6988 9.32454 26.6622C10.9369 25.9953 12.7837 26.7611 13.4507 28.3734C14.1176 29.9858 13.3517 31.8326 11.7394 32.4996C11.6514 32.5362 11.5635 32.5655 11.4719 32.5948C12.5309 34.1376 13.8684 35.4751 15.4111 36.5341C15.4404 36.4461 15.4697 36.3545 15.5064 36.2666C16.1733 34.6542 18.0202 33.8884 19.6325 34.5553C21.2448 35.2222 22.0107 37.0691 21.3438 38.6814C21.3071 38.7694 21.2668 38.8536 21.2229 38.9343C22.128 39.1028 23.0551 39.1944 24.0078 39.1944C24.9605 39.1944 25.8913 39.1028 26.7927 38.9343C26.7488 38.85 26.7085 38.7694 26.6718 38.6814C26.0049 37.0691 26.7708 35.2222 28.3794 34.5553C29.9918 33.8884 31.8386 34.6542 32.5055 36.2666C32.5422 36.3545 32.5715 36.4425 32.6008 36.5341C34.1435 35.4751 35.481 34.1376 36.5401 32.5948C36.4521 32.5655 36.3605 32.5362 36.2726 32.4996C34.6602 31.8326 33.8944 29.9858 34.5649 28.3734C35.2319 26.7611 37.0787 25.9953 38.6911 26.6622C38.779 26.6988 38.8633 26.7391 38.9439 26.7831C39.1125 25.878 39.2041 24.9509 39.2041 23.9982C39.2041 23.0454 39.1125 22.1147 38.9439 21.2132ZM26.844 28.9231C25.0851 29.9381 22.9195 29.9381 21.1606 28.9231C19.4016 27.9081 18.317 26.0319 18.317 23.9982C18.317 21.9644 19.4016 20.0919 21.1606 19.0732C22.9195 18.0582 25.0851 18.0582 26.844 19.0732C28.603 20.0882 29.6876 21.9644 29.6876 23.9982C29.6876 26.0319 28.603 27.9044 26.844 28.9231Z" fill="black"/>
<defs>
<linearGradient id="paint0_linear_3965_31327" x1="34.3926" y1="5.99863" x2="13.6081" y2="42.0014" gradientUnits="userSpaceOnUse">
<stop stop-color="#7790E2"/>
<stop offset="1" stop-color="#486DDC"/>
</linearGradient>
</defs>
</svg>

<svg xmlns="http://www.w3.org/2000/svg" width="48" height="48" fill="none" xmlns:v="https://vecta.io/nano"><path d="M24 0L3.216 12.001v23.998L24 48l20.784-12.001V12.001L24 0zm14.943 26.787l-.253-.121a3.16 3.16 0 0 0-4.126 1.711 3.16 3.16 0 0 0 1.708 4.126 3.29 3.29 0 0 0 .267.095 15.25 15.25 0 0 1-3.939 3.939l-.095-.267a3.16 3.16 0 0 0-4.126-1.711c-1.612.667-2.378 2.514-1.708 4.126.037.088.077.172.121.253-.905.169-1.832.26-2.785.26s-1.884-.092-2.785-.26l.121-.253a3.16 3.16 0 0 0-1.711-4.126 3.16 3.16 0 0 0-4.126 1.711 3.29 3.29 0 0 0-.095.267 15.25 15.25 0 0 1-3.939-3.939l.268-.095a3.16 3.16 0 0 0 1.711-4.126 3.16 3.16 0 0 0-4.126-1.711c-.088.037-.172.077-.253.121a15.17 15.17 0 0 1-.26-2.785 15.14 15.14 0 0 1 .26-2.785l.253.121a3.16 3.16 0 0 0 4.126-1.708 3.16 3.16 0 0 0-1.711-4.126 3.29 3.29 0 0 0-.268-.095 15.25 15.25 0 0 1 3.939-3.939l.095.268c.667 1.612 2.514 2.378 4.126 1.708a3.16 3.16 0 0 0 1.711-4.126 2.69 2.69 0 0 0-.121-.253 15.17 15.17 0 0 1 2.785-.26 15.14 15.14 0 0 1 2.785.26l-.121.253a3.16 3.16 0 0 0 1.708 4.126 3.16 3.16 0 0 0 4.126-1.708 3.29 3.29 0 0 0 .095-.268 15.25 15.25 0 0 1 3.939 3.939l-.267.095c-1.612.667-2.378 2.514-1.708 4.126s2.514 2.378 4.126 1.708c.088-.037.172-.077.253-.121.169.905.26 1.832.26 2.785s-.092 1.884-.26 2.785z" fill="url(#A)"/><path d="M38.943 21.213l-.253.121a3.16 3.16 0 0 1-4.126-1.708 3.16 3.16 0 0 1 1.708-4.126 3.31 3.31 0 0 1 .267-.095 15.25 15.25 0 0 0-3.939-3.939l-.095.268c-.667 1.612-2.514 2.378-4.126 1.708s-2.378-2.514-1.708-4.126a2.69 2.69 0 0 1 .121-.253 15.17 15.17 0 0 0-2.785-.26 15.14 15.14 0 0 0-2.785.26l.121.253a3.16 3.16 0 0 1-1.711 4.126 3.16 3.16 0 0 1-4.126-1.708c-.037-.088-.066-.176-.095-.268a15.25 15.25 0 0 0-3.939 3.939l.268.095a3.16 3.16 0 0 1 1.711 4.126c-.667 1.612-2.514 2.378-4.126 1.708a2.69 2.69 0 0 1-.253-.121 15.17 15.17 0 0 0-.26 2.785 15.14 15.14 0 0 0 .26 2.785l.253-.121a3.16 3.16 0 0 1 4.126 1.711 3.16 3.16 0 0 1-1.711 4.126c-.088.037-.176.066-.268.095a15.25 15.25 0 0 0 3.939 3.939l.095-.267a3.16 3.16 0 0 1 4.126-1.711 3.16 3.16 0 0 1 1.711 4.126c-.037.088-.077.172-.121.253.905.169 1.832.26 2.785.26s1.883-.092 2.785-.26l-.121-.253a3.16 3.16 0 0 1 1.708-4.126 3.16 3.16 0 0 1 4.126 1.711 3.31 3.31 0 0 1 .095.267 15.25 15.25 0 0 0 3.939-3.939l-.267-.095c-1.612-.667-2.378-2.514-1.708-4.126a3.16 3.16 0 0 1 4.126-1.711c.088.037.172.077.253.121.169-.905.26-1.832.26-2.785s-.092-1.884-.26-2.785zm-12.1 7.71c-1.759 1.015-3.925 1.015-5.683 0s-2.844-2.891-2.844-4.925a5.69 5.69 0 0 1 2.844-4.925c1.759-1.015 3.924-1.015 5.683 0s2.844 2.891 2.844 4.925a5.69 5.69 0 0 1-2.844 4.925z" fill="#000"/><defs><linearGradient id="A" x1="34.392" y1="5.999" x2="13.608" y2="42.001" gradientUnits="userSpaceOnUse"><stop stop-color="#7790e2"/><stop offset="1" stop-color="#486ddc"/></linearGradient></defs></svg>
